svg/emoji_u1f992.svg

<?xml version="1.0" encoding="UTF-8" standalone="no"?>
<!-- Generator: Adobe Illustrator 24.1.2, SVG Export Plug-In . SVG Version: 6.00 Build 0)  -->

<svg
   version="1.1"
   id="Layer_2"
   x="0px"
   y="0px"
   viewBox="0 0 128 128"
   style="enable-background:new 0 0 128 128;"
   xml:space="preserve"
   sodipodi:docname="emoji_u1f992.svg"
   inkscape:version="1.2.2 (732a01da63, 2022-12-09)"
   xmlns:inkscape="http://www.inkscape.org/namespaces/inkscape"
   xmlns:sodipodi="http://sodipodi.sourceforge.net/DTD/sodipodi-0.dtd"
   xmlns="http://www.w3.org/2000/svg"
   xmlns:svg="http://www.w3.org/2000/svg"><defs
   id="defs15566" /><sodipodi:namedview
   id="namedview15564"
   pagecolor="#ffffff"
   bordercolor="#000000"
   borderopacity="0.25"
   inkscape:showpageshadow="2"
   inkscape:pageopacity="0.0"
   inkscape:pagecheckerboard="0"
   inkscape:deskcolor="#d1d1d1"
   showgrid="false"
   inkscape:zoom="4"
   inkscape:cx="72.75"
   inkscape:cy="48"
   inkscape:window-width="1366"
   inkscape:window-height="697"
   inkscape:window-x="-8"
   inkscape:window-y="-8"
   inkscape:window-maximized="1"
   inkscape:current-layer="Layer_2" />
<path
   style="fill:#FA821B;"
   d="M57.1,71.88c-1.2,0.28-8.02,0.92-8.02,0.92s-0.06,10.21,0,15.98c0.07,6.9,0.56,11.83,0.49,16.12  c-0.08,4.58-0.77,9.36-1.06,10.21s-1.55,3.45-1.34,3.94c0.21,0.49,1.2,0.79,3.73,0.84c3.59,0.07,4.29-0.49,4.5-1.27  c0.09-0.34,0.35-17.18,0.63-19.92c0.31-3.02,0.42-14.15,0.42-14.15L57.1,71.88z"
   id="path15487" />
<path
   style="fill:#FA821B;"
   d="M92.36,80.68l-5.7,6.55l1.83,8.94c0,0,2.67,3.94,2.67,5.77c0,1.83-0.28,6.6-0.35,7.25  c-0.14,1.34-1.2,5.21-1.48,6.62c-0.28,1.41-0.63,2.82-0.21,3.31s2.61,0.39,3.59,0.35c1.62-0.07,2.39-0.42,2.89-0.7  c0.6-0.34,0.63-6.9,0.77-10.35c0.13-3.12,0.56-7.74,0.56-8.8s-1.97-3.24-2.96-5.21c-0.7-1.41-1.41-3.45-1.41-4.72  S92.36,80.68,92.36,80.68z"
   id="path15489" />
<polygon
   style="fill:#ffb305;fill-opacity:1"
   points="35.04,11.67 34.81,6.84 38,6.74 38.89,11.01 "
   id="polygon15491" />
<path
   style="fill:#D57657;"
   d="M102.57,83.14c0,0,2.53-0.4,4.22,0.63c1.69,1.03,3.16,3.07,3.14,6.45c-0.01,2.66-0.96,5.06-2.02,6.57  c-0.82,1.17-1.83,1.78-2.16,1.6s-0.23-3.28-0.8-5.44s-2.11-7.37-2.25-7.98C102.57,84.36,102.57,83.14,102.57,83.14z"
   id="path15493" />
<path
   style="fill:#fa821b;fill-opacity:1"
   d="M41.45,11.72c0,0-2.78-1.54-5.92-0.55c-3.14,0.99-4.82,3.27-6.04,5.48s-2.49,3.68-3.61,4.46  c-2.37,1.65-8.02,3.61-6.57,8.17c1.09,3.44,6.8,1.97,10,1.74c3.19-0.23,8.45-0.09,8.45-0.09l7.7-12.34L41.45,11.72z"
   id="path15495" />
<path
   style="fill:#ffb305;fill-opacity:1"
   d="m 49.7,17.63 8.24,-1.29 1.65,1.27 c 0,0 -2.46,4.79 -4.96,6.03 -2.17,1.08 -5.96,0.8 -5.96,0.8 0,0 1.78,5.49 3.66,9.06 1.88,3.57 5.63,9.48 6.76,10.65 1.13,1.17 7.56,5.4 8.4,6.15 0.84,0.75 18.209229,8.370251 18.209229,8.370251 L 59.32,57.8 41.87,24.15 Z"
   id="path15497"
   sodipodi:nodetypes="cccccssscccc" />
<path
   style="fill:#FFB305;"
   d="M47.03,7.21l-3.89-1.13c0,0-0.8,3.1-1.22,3.89c-0.42,0.8-2.58,1.92-2.82,3.1  c-0.23,1.17-0.09,1.83-0.09,1.83s-7.09-0.66-7.88,5.49c-0.39,2.98,0.36,4.93,1.27,6.34c1.2,1.86,2.94,2.56,3.1,2.96  c0.28,0.7,4.74,11.64,5.58,13.84c0.84,2.21,6.99,15.63,7.09,16.61c0.09,0.99-0.42,2.53-0.66,4.13c-0.23,1.6-0.75,6.29,1.03,9.85  s5.73,7.04,6.1,8.31c0.38,1.27,2.16,5.63,2.72,8.82c0.56,3.19,1.41,10.04,1.78,12.67c0.38,2.63,1.45,7.04,1.41,10.32  c-0.05,3.28-1.36,7.04-1.13,7.88c0.23,0.84,1.97,1.6,3.94,1.5c1.97-0.09,3.94-0.99,4.04-1.5c0.09-0.52-0.7-10.51-0.89-12.62  c-0.19-2.11-0.75-8.54-0.38-13.84c0.38-5.3,1.22-12.76,1.22-12.76s3.24-0.33,4.6-0.56s5.77-1.6,5.77-1.6s0.66,3.57,1.69,8.92  c1.03,5.35,1.83,10.65,1.41,12.62s-1.13,6.05-2.53,9.9s-3.52,9.76-3.24,10.37c0.28,0.61,2.16,1.31,4.13,1.13  c1.97-0.19,3.28-0.94,3.52-1.5s0.8-6.29,0.99-6.95c0.19-0.66,4.65-13.37,5.07-16.47c0.42-3.1,1.17-11.45,1.45-12.34  c0.28-0.89,2.39-2.3,3.47-5.16c1.08-2.86,1.55-5.91,1.55-5.91s1.64,3.19,3.28,5.16s4.83,4.81,5.21,5.26  c0.65,0.75,2.06,0.14,1.03-1.22c-1.03-1.36-3.52-3.61-4.6-5.4c-1.08-1.78-3-6.19-3.33-7.32c-0.33-1.13-1.54-3.27-1.99-4  c-0.73-1.17-4.85-8.07-7.29-8.73c-2.44-0.66-5.98-1.44-10.01-1.4c-2.39,0.03-7.65-1.5-8.4-1.83c-0.75-0.33-2.67-1.27-2.67-1.27  s-1.6-2.72-2.91-3.99c-1.31-1.27-4.55-2.58-5.35-3.38s-4.88-6.9-7.04-11.31c-2.16-4.41-4.32-8.02-4.79-9.85  c-0.47-1.83-0.89-4.18-0.89-4.18s4.27,0.23,6.85-0.56s6.05-4.65,6.05-4.65s-2.72-2.58-6.71-2.49c-3.99,0.09-5.14,0.97-5.14,0.97  s-0.07-2.24,0.02-3.27C46.65,10.87,47.03,7.21,47.03,7.21z"
   id="path15499" />
<path
   style="fill:#2E2A32;"
   d="M23.16,25.59c-0.75,0.69-1.27,1.63-0.71,2.26c0.66,0.74,1.62,0.3,2.32-0.3  c0.71-0.59,1.47-1.67,0.91-2.36C25.18,24.57,24.12,24.7,23.16,25.59z"
   id="path15501" />


<path
   style="fill:#4D4D4D;"
   d="M36.47,4.09c-2-0.15-2.57,0.74-2.6,1.79c-0.04,1.06,0.6,2.08,2.29,2.08s2.46-0.6,2.46-2.11  C38.62,4.51,37.39,4.16,36.47,4.09z"
   id="path15507" />
<path
   style="fill:#4D4D4D;"
   d="M42.6,5.39c-0.7,1.58,0.14,2.86,1.87,3.48c1.76,0.63,3.24,0.28,3.63-1.51  c0.39-1.79-0.56-2.6-1.55-3.06C45.57,3.85,43.49,3.38,42.6,5.39z"
   id="path15509" />
<path
   style="fill:#D57657;"
   d="M43.26,26.83c0.82,0.41,0.77,1.76,0.49,2.53c-0.17,0.46-1.27,1.13-2.11,0.28  C40.8,28.8,42,26.19,43.26,26.83z"
   id="path15511" />
<path
   style="fill:#D57657;"
   d="M39.36,33.9c-0.03,0.81,0.95,3.38,2.11,3.45c1.16,0.07,2.71-0.6,2.6-1.44  c-0.11-0.84-1.09-3.41-1.97-3.45C41.22,32.42,39.39,32.85,39.36,33.9z"
   id="path15513" />
<path
   style="fill:#D57657;"
   d="M45.34,31.61c-1.26,0.65-0.42,1.87,0.07,2.5c0.49,0.63,1.55,1.51,2.29,0.95  c0.74-0.56,0.46-1.56,0.32-2.22C47.52,30.52,46.78,30.88,45.34,31.61z"
   id="path15515" />
<path
   style="fill:#D57657;"
   d="M48.33,36.61c-0.68,0.43-1.48,0.67-0.56,2.46c0.92,1.79,2.6,6.19,4.5,5.24s0.14-3.48-0.56-4.82  C51.01,38.16,50.13,35.49,48.33,36.61z"
   id="path15517" />
<path
   style="fill:#D57657;"
   d="M41.96,41.29c-0.25,1.1,1.65,5.38,3.38,5.56c1.72,0.18,2.89-0.88,2.89-1.79  c0-0.92-1.87-5.6-3.31-5.56S42.14,40.52,41.96,41.29z"
   id="path15519" />
<path
   style="fill:#D57657;"
   d="M46.71,51.25c-0.06,0.78,1.9,4.5,3.52,4.65s4.4-1.06,4.54-2.46c0.14-1.41-1.48-5.07-3.31-5.24  C49.63,48.02,46.78,50.27,46.71,51.25z"
   id="path15521" />
<path
   style="fill:#D57657;"
   d="M53.82,46.64c-0.87,0.99-0.39,1.13,1.55,3.48c0.65,0.79,2.01,2.85,3.2,1.34  c1.01-1.27,0.88-1.23-1.62-3.52C56.03,47.1,54.56,45.8,53.82,46.64z"
   id="path15523" />
<path
   style="fill:#D57657;"
   d="M59.77,53.82c0,1.02,3.38,3.2,4.08,2.32s-1.02-3.7-1.97-3.94C60.93,51.96,59.77,53.15,59.77,53.82z"
   id="path15525" />
<path
   style="fill:#D57657;"
   d="M52.63,60.83c1.9,2.36,3.1,1.76,4.19,2.29c1.09,0.53,3.13,1.96,3.91,1.94  c1.23-0.04,3.87-1.62,3.98-3.45c0.11-1.83-3.41-5.6-5.77-6.02C56.57,55.16,50.9,58.68,52.63,60.83z"
   id="path15527" />
<path
   style="fill:#D57657;"
   d="M51.01,64.13c0.06,0.38-0.81,1.65-1.2,2.96c-0.39,1.3-0.42,3.13-0.7,3.41  c-0.28,0.28-1.65,0.04-1.65,0.04s-0.48-2-0.32-4.75c0.11-1.83,0.88-3.94,0.88-3.94S50.9,63.47,51.01,64.13z"
   id="path15529" />
<path
   style="fill:#D57657;"
   d="M53.51,65.05c-0.56,0.21-1.69,1.48-2.15,2.89s-0.88,3.91-0.6,4.26c0.28,0.35,7.85,3.91,9.12,3.73  c1.27-0.18,5.81-3.7,5.91-4.93c0.11-1.23-0.7-4.72-2.29-4.89c-1.58-0.18-4.08,2.25-4.75,2.39C58.08,68.64,54.46,64.7,53.51,65.05z"
   id="path15531" />
<path
   style="fill:#D57657;"
   d="M66.14,57.66c0.04,0.56,1.37,1.65,1.51,3.41c0.14,1.76-1.27,3.27-1.27,3.91s1.76,4.24,2.39,4.15  c1.34-0.18,3.84-4.22,4.01-7.71c0.11-2.11-0.6-4.29-1.16-4.65c-0.56-0.35-2.15-0.99-3.24-0.67C67.3,56.43,66.07,56.74,66.14,57.66z"
   id="path15533" />
<path
   style="fill:#D57657;"
   d="M76,59.35c-1.03,0.23-2.99,6.19-2.36,7.29c0.63,1.09,5.14,2.64,6.26,1.58  c1.13-1.06,0.35-3.87-0.32-5.21C78.92,61.67,77.09,59.1,76,59.35z"
   id="path15535" />
<path
   style="fill:#D57657;"
   d="M70.4,70.26c-0.49,0.63,2.78,4.93,4.01,6.34c0.82,0.93,4.79-4.47,4.61-5.53  C78.85,70.01,72.42,67.67,70.4,70.26z"
   id="path15537" />
<path
   style="fill:#D57657;"
   d="M68.6,72.62c-1.51-0.2-5.38,3.17-5.49,3.8c-0.11,0.63,1.48,4.12,3.48,3.98  c2.01-0.14,5.17-1.94,5.1-2.67C71.63,76.98,69.94,72.79,68.6,72.62z"
   id="path15539" />
<path
   style="fill:#D57657;"
   d="M56.04,77.23c-1.21,0.7,0.35,3.77,2.53,5.81c2.12,1.98,3.17,3.2,4.05,2.46  c0.88-0.74,1.44-4.89,0.7-5.56C62.59,79.27,57.87,76.17,56.04,77.23z"
   id="path15541" />
<path
   style="fill:#D57657;"
   d="M61.92,88.7c-0.15,0.9,1.16,2.11,1.87,1.83c0.7-0.28,1.9-2.36,1.09-3.06  C64.06,86.76,62.09,87.64,61.92,88.7z"
   id="path15543" />
<path
   style="fill:#D57657;"
   d="M59.24,92.01c-0.33,0.92,0.81,2.15,1.94,2.15s1.27-1.72,0.25-2.39  C60.4,91.09,59.45,91.41,59.24,92.01z"
   id="path15545" />
<path
   style="fill:#D57657;"
   d="M86.1,67.44c-1.38-0.3-4.47,2.15-5.14,4.26c-0.67,2.11,0.04,9.19,1.58,9.61s5.24-3.73,5.46-4.89  C88.21,75.26,87.22,67.69,86.1,67.44z"
   id="path15547" />
<path
   style="fill:#D57657;"
   d="M88.31,67.86c0.77,2.46,1.44,6.05,2.29,7.32c1.22,1.83,4.15-2.11,3.84-4.36  c-0.32-2.25-2.32-4.68-3.45-4.79C89.86,65.93,87.93,66.65,88.31,67.86z"
   id="path15549" />
<path
   style="fill:#D57657;"
   d="M87.75,81.24c-0.82-0.37-4.43,2.89-4.61,4.08c-0.18,1.2,1.97,4.19,3.38,3.55  C87.93,88.24,88.45,81.56,87.75,81.24z"
   id="path15551" />
<path
   style="fill:#D57657;"
   d="M89.69,80.99c0.47,0.93,2.22,0.49,2.82-0.32s0.6-3.55,0.18-3.66c-0.42-0.11-2.15,1.3-2.32,1.58  C90.18,78.88,89.55,80.71,89.69,80.99z"
   id="path15553" />
<path
   style="fill:#D57657;"
   d="M83.81,92.61c-0.04,0.35,1.33,3.58,2.04,3.55c0.99-0.04,1.41-2.75,1.51-3.31  c0.08-0.43-0.67-1.83-1.51-1.79S83.88,92.04,83.81,92.61z"
   id="path15555" />
<path
   style="fill:#D57657;"
   d="M82.82,66.67c0.44,1.24,3.06-1.44,3.27-1.9c0.21-0.46,0.99-2.96,0-3.59  c-0.99-0.63-4.43-0.11-4.61,0.53C81.31,62.34,82.61,66.07,82.82,66.67z"
   id="path15557" />
<path
   style="fill:#D57657;"
   d="M88.49,64.31c0.36,0.45,2.15,0.74,2.92,0.53c0.77-0.21,1.13-0.42,1.13-0.42s-1.65-2.46-2.08-2.99  c-0.42-0.53-1.9-1.9-2.29-2.08C87.79,59.17,87.43,63.01,88.49,64.31z"
   id="path15559" />
<path
   style="fill:#D57657;"
   d="M80.96,60.33c1.48,0,3.03-2.08,3.03-2.08s-2.11-0.35-2.6-0.42c-0.49-0.07-3.03-0.14-3.03-0.14  S79.8,60.33,80.96,60.33z"
   id="path15561" />
<path
   id="path16463"
   style="fill:#2e2a32;fill-opacity:1;stroke-width:2;stroke-linecap:round;stroke-linejoin:round;paint-order:stroke fill markers"
   d="m 37.927798,19.162744 c -1.226914,5.09e-4 -2.03832,1.210072 -2.038798,2.47604 -4.78e-4,1.266666 0.811206,2.477961 2.038798,2.478471 1.228291,5.11e-4 2.040681,-1.211085 2.040202,-2.478471 -4.79e-4,-1.266688 -0.812588,-2.47655 -2.040202,-2.47604 z"
   sodipodi:nodetypes="sssss" /></svg>

<?xml version="1.0" encoding="UTF-8" standalone="no"?>
<!DOCTYPE svg PUBLIC "-//W3C//DTD SVG 1.1//EN" "http://www.w3.org/Graphics/SVG/1.1/DTD/svg11.dtd">
<svg width="100%" height="100%" viewBox="0 0 128 128" version="1.1" xmlns="http://www.w3.org/2000/svg" xmlns:xlink="http://www.w3.org/1999/xlink" xml:space="preserve" xmlns:serif="http://www.serif.com/" style="fill-rule:evenodd;clip-rule:evenodd;stroke-linejoin:round;stroke-miterlimit:2;">
    <path id="path15487" d="M57.1,71.88C55.9,72.16 49.08,72.8 49.08,72.8C49.08,72.8 49.02,83.01 49.08,88.78C49.15,95.68 49.64,100.61 49.57,104.9C49.49,109.48 48.8,114.26 48.51,115.11C48.22,115.96 46.96,118.56 47.17,119.05C47.38,119.54 48.37,119.84 50.9,119.89C54.49,119.96 55.19,119.4 55.4,118.62C55.49,118.28 55.75,101.44 56.03,98.7C56.34,95.68 56.45,84.55 56.45,84.55L57.1,71.88Z" style="fill:rgb(255,143,0);fill-rule:nonzero;"/>
    <path id="path15489" d="M92.36,80.68L86.66,87.23L88.49,96.17C88.49,96.17 91.16,100.11 91.16,101.94C91.16,103.77 90.88,108.54 90.81,109.19C90.67,110.53 89.61,114.4 89.33,115.81C89.05,117.22 88.7,118.63 89.12,119.12C89.54,119.61 91.73,119.51 92.71,119.47C94.33,119.4 95.1,119.05 95.6,118.77C96.2,118.43 96.23,111.87 96.37,108.42C96.5,105.3 96.93,100.68 96.93,99.62C96.93,98.56 94.96,96.38 93.97,94.41C93.27,93 92.56,90.96 92.56,89.69C92.56,88.42 92.36,80.68 92.36,80.68Z" style="fill:rgb(255,143,0);fill-rule:nonzero;"/>
    <path id="polygon15491" d="M35.04,11.67L34.81,6.84L38,6.74L38.89,11.01L35.04,11.67Z" style="fill:rgb(255,179,5);fill-rule:nonzero;"/>
    <path id="path15493" d="M102.57,83.14C102.57,83.14 105.1,82.74 106.79,83.77C108.48,84.8 109.95,86.84 109.93,90.22C109.92,92.88 108.97,95.28 107.91,96.79C107.09,97.96 106.08,98.57 105.75,98.39C105.42,98.21 105.52,95.11 104.95,92.95C104.38,90.79 102.84,85.58 102.7,84.97C102.57,84.36 102.57,83.14 102.57,83.14Z" style="fill:rgb(255,111,0);fill-rule:nonzero;"/>
    <path id="path15495" d="M41.45,11.72C41.45,11.72 38.67,10.18 35.53,11.17C32.39,12.16 30.71,14.44 29.49,16.65C28.27,18.86 27,20.33 25.88,21.11C23.51,22.76 17.86,24.72 19.31,29.28C20.4,32.72 26.11,31.25 29.31,31.02C32.5,30.79 37.76,30.93 37.76,30.93L45.46,18.59L41.45,11.72Z" style="fill:rgb(255,143,0);fill-rule:nonzero;"/>
    <path id="path15497" d="M49.7,17.63L57.94,16.34L59.59,17.61C59.59,17.61 57.13,22.4 54.63,23.64C52.46,24.72 48.67,24.44 48.67,24.44C48.67,24.44 50.45,29.93 52.33,33.5C54.21,37.07 57.96,42.98 59.09,44.15C60.22,45.32 66.65,49.55 67.49,50.3C68.33,51.05 85.699,58.67 85.699,58.67L59.32,57.8L41.87,24.15L49.7,17.63Z" style="fill:rgb(255,179,0);fill-rule:nonzero;"/>
    <path id="path15499" d="M47.03,7.21L43.14,6.08C43.14,6.08 42.34,9.18 41.92,9.97C41.5,10.77 39.34,11.89 39.1,13.07C38.87,14.24 39.01,14.9 39.01,14.9C39.01,14.9 31.92,14.24 31.13,20.39C30.74,23.37 31.49,25.32 32.4,26.73C33.6,28.59 35.34,29.29 35.5,29.69C35.78,30.39 40.24,41.33 41.08,43.53C41.92,45.74 48.07,59.16 48.17,60.14C48.26,61.13 47.75,62.67 47.51,64.27C47.28,65.87 46.76,70.56 48.54,74.12C50.32,77.68 54.27,81.16 54.64,82.43C55.02,83.7 56.8,88.06 57.36,91.25C57.92,94.44 58.77,101.29 59.14,103.92C59.52,106.55 60.59,110.96 60.55,114.24C60.5,117.52 59.19,121.28 59.42,122.12C59.65,122.96 61.39,123.72 63.36,123.62C65.33,123.53 67.3,122.63 67.4,122.12C67.49,121.6 66.7,111.61 66.51,109.5C66.32,107.39 65.76,100.96 66.13,95.66C66.51,90.36 67.35,82.9 67.35,82.9C67.35,82.9 70.59,82.57 71.95,82.34C73.31,82.11 77.72,80.74 77.72,80.74C77.72,80.74 78.38,84.31 79.41,89.66C80.44,95.01 81.24,100.31 80.82,102.28C80.4,104.25 79.69,108.33 78.29,112.18C76.89,116.03 74.77,121.94 75.05,122.55C75.33,123.16 77.21,123.86 79.18,123.68C81.15,123.49 82.46,122.74 82.7,122.18C82.94,121.62 83.5,115.89 83.69,115.23C83.88,114.57 88.34,101.86 88.76,98.76C89.18,95.66 89.93,87.31 90.21,86.42C90.49,85.53 92.6,84.12 93.68,81.26C94.76,78.4 95.23,75.35 95.23,75.35C95.23,75.35 96.87,78.54 98.51,80.51C100.15,82.48 103.34,85.32 103.72,85.77C104.37,86.52 105.78,85.91 104.75,84.55C103.72,83.19 101.23,80.94 100.15,79.15C99.07,77.37 97.15,72.96 96.82,71.83C96.49,70.7 95.28,68.56 94.83,67.83C94.1,66.66 89.98,59.76 87.54,59.1C85.1,58.44 81.56,57.66 77.53,57.7C75.14,57.73 69.88,56.2 69.13,55.87C68.38,55.54 66.46,54.6 66.46,54.6C66.46,54.6 64.86,51.88 63.55,50.61C62.24,49.34 59,48.03 58.2,47.23C57.4,46.43 53.32,40.33 51.16,35.92C49,31.51 46.84,27.9 46.37,26.07C45.9,24.24 45.48,21.89 45.48,21.89C45.48,21.89 49.75,22.12 52.33,21.33C54.91,20.54 58.38,16.68 58.38,16.68C58.38,16.68 55.66,14.1 51.67,14.19C47.68,14.28 46.53,15.16 46.53,15.16C46.53,15.16 46.46,12.92 46.55,11.89C46.65,10.87 47.03,7.21 47.03,7.21Z" style="fill:rgb(255,179,0);fill-rule:nonzero;"/>
    <path id="path15501" d="M23.16,25.59C22.41,26.28 21.89,27.22 22.45,27.85C23.11,28.59 24.07,28.15 24.77,27.55C25.48,26.96 26.24,25.88 25.68,25.19C25.18,24.57 24.12,24.7 23.16,25.59Z" style="fill:rgb(33,33,33);fill-rule:nonzero;"/>
    <path id="path15507" d="M36.47,4.09C34.47,3.94 33.9,4.83 33.87,5.88C33.83,6.94 34.47,7.96 36.16,7.96C37.85,7.96 38.62,7.36 38.62,5.85C38.62,4.51 37.39,4.16 36.47,4.09Z" style="fill:rgb(97,97,97);fill-rule:nonzero;"/>
    <path id="path15509" d="M42.6,5.39C41.9,6.97 42.74,8.25 44.47,8.87C46.23,9.5 47.71,9.15 48.1,7.36C48.49,5.57 47.54,4.76 46.55,4.3C45.57,3.85 43.49,3.38 42.6,5.39Z" style="fill:rgb(97,97,97);fill-rule:nonzero;"/>
    <path id="path15511" d="M43.26,26.83C44.08,27.24 44.03,28.59 43.75,29.36C43.58,29.82 42.48,30.49 41.64,29.64C40.8,28.8 42,26.19 43.26,26.83Z" style="fill:rgb(237,108,48);fill-rule:nonzero;"/>
    <path id="path15513" d="M39.36,33.9C39.33,34.71 40.31,37.28 41.47,37.35C42.63,37.42 44.18,36.75 44.07,35.91C43.96,35.07 42.98,32.5 42.1,32.46C41.22,32.42 39.39,32.85 39.36,33.9Z" style="fill:rgb(237,108,48);fill-rule:nonzero;"/>
    <path id="path15515" d="M45.34,31.61C44.08,32.26 44.92,33.48 45.41,34.11C45.9,34.74 46.96,35.62 47.7,35.06C48.44,34.5 48.16,33.5 48.02,32.84C47.52,30.52 46.78,30.88 45.34,31.61Z" style="fill:rgb(237,108,48);fill-rule:nonzero;"/>
    <path id="path15517" d="M48.33,36.61C47.65,37.04 46.85,37.28 47.77,39.07C48.69,40.86 50.37,45.26 52.27,44.31C54.17,43.36 52.41,40.83 51.71,39.49C51.01,38.16 50.13,35.49 48.33,36.61Z" style="fill:rgb(237,108,48);fill-rule:nonzero;"/>
    <path id="path15519" d="M41.96,41.29C41.71,42.39 43.61,46.67 45.34,46.85C47.06,47.03 48.23,45.97 48.23,45.06C48.23,44.14 46.36,39.46 44.92,39.5C43.48,39.54 42.14,40.52 41.96,41.29Z" style="fill:rgb(237,108,48);fill-rule:nonzero;"/>
    <path id="path15521" d="M46.71,51.25C46.65,52.03 48.61,55.75 50.23,55.9C51.85,56.05 54.63,54.84 54.77,53.44C54.91,52.03 53.29,48.37 51.46,48.2C49.63,48.02 46.78,50.27 46.71,51.25Z" style="fill:rgb(237,108,48);fill-rule:nonzero;"/>
    <path id="path15523" d="M53.82,46.64C52.95,47.63 53.43,47.77 55.37,50.12C56.02,50.91 57.38,52.97 58.57,51.46C59.58,50.19 59.45,50.23 56.95,47.94C56.03,47.1 54.56,45.8 53.82,46.64Z" style="fill:rgb(237,108,48);fill-rule:nonzero;"/>
    <path id="path15525" d="M59.77,53.82C59.77,54.84 63.15,57.02 63.85,56.14C64.55,55.26 62.83,52.44 61.88,52.2C60.93,51.96 59.77,53.15 59.77,53.82Z" style="fill:rgb(237,108,48);fill-rule:nonzero;"/>
    <path id="path15527" d="M52.63,60.83C54.53,63.19 55.73,62.59 56.82,63.12C57.91,63.65 59.95,65.08 60.73,65.06C61.96,65.02 64.6,63.44 64.71,61.61C64.82,59.78 61.3,56.01 58.94,55.59C56.57,55.16 50.9,58.68 52.63,60.83Z" style="fill:rgb(237,108,48);fill-rule:nonzero;"/>
    <path id="path15529" d="M51.01,64.13C51.07,64.51 50.2,65.78 49.81,67.09C49.42,68.39 49.39,70.22 49.11,70.5C48.83,70.78 47.46,70.54 47.46,70.54C47.46,70.54 46.98,68.54 47.14,65.79C47.25,63.96 48.02,61.85 48.02,61.85C48.02,61.85 50.9,63.47 51.01,64.13Z" style="fill:rgb(237,108,48);fill-rule:nonzero;"/>
    <path id="path15531" d="M53.51,65.05C52.95,65.26 51.82,66.53 51.36,67.94C50.9,69.35 50.48,71.85 50.76,72.2C51.04,72.55 58.61,76.11 59.88,75.93C61.15,75.75 65.69,72.23 65.79,71C65.9,69.77 65.09,66.28 63.5,66.11C61.92,65.93 59.42,68.36 58.75,68.5C58.08,68.64 54.46,64.7 53.51,65.05Z" style="fill:rgb(237,108,48);fill-rule:nonzero;"/>
    <path id="path15533" d="M66.14,57.66C66.18,58.22 67.51,59.31 67.65,61.07C67.79,62.83 66.38,64.34 66.38,64.98C66.38,65.62 68.14,69.22 68.77,69.13C70.11,68.95 72.61,64.91 72.78,61.42C72.89,59.31 72.18,57.13 71.62,56.77C71.06,56.42 69.47,55.78 68.38,56.1C67.3,56.43 66.07,56.74 66.14,57.66Z" style="fill:rgb(237,108,48);fill-rule:nonzero;"/>
    <path id="path15535" d="M76,59.35C74.97,59.58 73.01,65.54 73.64,66.64C74.27,67.73 78.78,69.28 79.9,68.22C81.03,67.16 80.25,64.35 79.58,63.01C78.92,61.67 77.09,59.1 76,59.35Z" style="fill:rgb(237,108,48);fill-rule:nonzero;"/>
    <path id="path15537" d="M70.4,70.26C69.91,70.89 73.18,75.19 74.41,76.6C75.23,77.53 79.2,72.13 79.02,71.07C78.85,70.01 72.42,67.67 70.4,70.26Z" style="fill:rgb(237,108,48);fill-rule:nonzero;"/>
    <path id="path15539" d="M68.6,72.62C67.09,72.42 63.22,75.79 63.11,76.42C63,77.05 64.59,80.54 66.59,80.4C68.6,80.26 71.76,78.46 71.69,77.73C71.63,76.98 69.94,72.79 68.6,72.62Z" style="fill:rgb(237,108,48);fill-rule:nonzero;"/>
    <path id="path15541" d="M56.04,77.23C54.83,77.93 56.39,81 58.57,83.04C60.69,85.02 61.74,86.24 62.62,85.5C63.5,84.76 64.06,80.61 63.32,79.94C62.59,79.27 57.87,76.17 56.04,77.23Z" style="fill:rgb(237,108,48);fill-rule:nonzero;"/>
    <path id="path15543" d="M61.92,88.7C61.77,89.6 63.08,90.81 63.79,90.53C64.49,90.25 65.69,88.17 64.88,87.47C64.06,86.76 62.09,87.64 61.92,88.7Z" style="fill:rgb(237,108,48);fill-rule:nonzero;"/>
    <path id="path15545" d="M59.24,92.01C58.91,92.93 60.05,94.16 61.18,94.16C62.31,94.16 62.45,92.44 61.43,91.77C60.4,91.09 59.45,91.41 59.24,92.01Z" style="fill:rgb(237,108,48);fill-rule:nonzero;"/>
    <path id="path15547" d="M86.1,67.44C84.72,67.14 81.63,69.59 80.96,71.7C80.29,73.81 81,80.89 82.54,81.31C84.08,81.73 87.78,77.58 88,76.42C88.21,75.26 87.22,67.69 86.1,67.44Z" style="fill:rgb(237,108,48);fill-rule:nonzero;"/>
    <path id="path15549" d="M88.31,67.86C89.08,70.32 89.75,73.91 90.6,75.18C91.82,77.01 94.75,73.07 94.44,70.82C94.12,68.57 92.12,66.14 90.99,66.03C89.86,65.93 87.93,66.65 88.31,67.86Z" style="fill:rgb(237,108,48);fill-rule:nonzero;"/>
    <path id="path15551" d="M87.75,81.24C86.93,80.87 83.32,84.13 83.14,85.32C82.96,86.52 85.11,89.51 86.52,88.87C87.93,88.24 88.45,81.56 87.75,81.24Z" style="fill:rgb(237,108,48);fill-rule:nonzero;"/>
    <path id="path15553" d="M89.69,80.99C90.16,81.92 91.91,81.48 92.51,80.67C93.11,79.86 93.11,77.12 92.69,77.01C92.27,76.9 90.54,78.31 90.37,78.59C90.18,78.88 89.55,80.71 89.69,80.99Z" style="fill:rgb(237,108,48);fill-rule:nonzero;"/>
    <path id="path15555" d="M83.81,92.61C83.77,92.96 85.14,96.19 85.85,96.16C86.84,96.12 87.26,93.41 87.36,92.85C87.44,92.42 86.69,91.02 85.85,91.06C85.01,91.1 83.88,92.04 83.81,92.61Z" style="fill:rgb(237,108,48);fill-rule:nonzero;"/>
    <path id="path15557" d="M82.82,66.67C83.26,67.91 85.88,65.23 86.09,64.77C86.3,64.31 87.08,61.81 86.09,61.18C85.1,60.55 81.66,61.07 81.48,61.71C81.31,62.34 82.61,66.07 82.82,66.67Z" style="fill:rgb(237,108,48);fill-rule:nonzero;"/>
    <path id="path15559" d="M88.49,64.31C88.85,64.76 90.64,65.05 91.41,64.84C92.18,64.63 92.54,64.42 92.54,64.42C92.54,64.42 90.89,61.96 90.46,61.43C90.04,60.9 88.56,59.53 88.17,59.35C87.79,59.17 87.43,63.01 88.49,64.31Z" style="fill:rgb(237,108,48);fill-rule:nonzero;"/>
    <path id="path15561" d="M80.96,60.33C82.44,60.33 83.99,58.25 83.99,58.25C83.99,58.25 81.88,57.9 81.39,57.83C80.9,57.76 78.36,57.69 78.36,57.69C78.36,57.69 79.8,60.33 80.96,60.33Z" style="fill:rgb(237,108,48);fill-rule:nonzero;"/>
    <path id="path16463" d="M37.928,19.163C36.701,19.163 35.889,20.373 35.889,21.639C35.889,22.905 36.7,24.117 37.928,24.117C39.156,24.118 39.968,22.906 39.968,21.639C39.968,20.372 39.155,19.162 37.928,19.163Z" style="fill:rgb(33,33,33);fill-rule:nonzero;"/>
</svg>
